_includes/icons/color-handshake.svg

<svg fill="#666" height="50" viewBox="0 0 48 48" width="50" xmlns="http://www.w3.org/2000/svg"><path d="m36.800781 28.199219-11.300781-11.300781 2.5-1.898438-2-2h-13.5l-8.5-2v16l5.898438 1 12 12.199219c.800781.800781 2 .800781 2.800781 0s.800781-2 0-2.800781l-.097656-.097657c-.203125-.199218-.203125-.5 0-.699218.199218-.203125.5-.203125.699218 0l.800782.796875c.796875.800781 2 .800781 2.796875 0 .800781-.796875.800781-2 0-2.796875l-.296875-.300782c-.203125-.199218-.203125-.5 0-.699218.199218-.203125.5-.203125.699218 0l1 1c.800782.796875 2 .796875 2.800782 0 .796875-.800782.796875-2 0-2.800782 0 0-.300782-.300781-.300782-.300781-.199218-.199219-.199218-.5 0-.699219.199219-.199218.5-.199218.699219 0l.300781.300782c.800782.796875 2 .796875 2.800782 0 1-.800782 1-2.101563.199218-2.902344z" fill="#ffb74d"/><g fill="#c77600"><path d="m27.398438 18.898438-4.699219 1.800781c-2.800781 1.101562-5.898438.402344-7.898438-1.800781-.402343-.398438-.300781-1.097657.300782-1.398438l13.296875-6.5c1.601562-.800781 3.5-.601562 4.902343.398438l.398438.300781c1.101562.800781 2.601562 1 3.902344.699219l6.398437-1.398438v16l-5.898437 1-.800782.800781z"/><path d="m18 39c.800781.800781 2 .800781 2.800781 0l.699219-.699219c.800781-.800781.800781-2 0-2.800781s-2-.800781-2.800781 0l-.699219.699219c-.800781.800781-.800781 2 0 2.800781z"/><path d="m15.101563 36.199219c.796875.800781 2 .800781 2.796875 0l.703125-.699219c.796875-.800781.796875-2 0-2.800781-.800782-.800781-2-.800781-2.800782 0l-.699218.699219c-.703125.703125-.703125 2 0 2.800781z"/><path d="m12.300781 33.398438c.800782.800781 2 .800781 2.800782 0l.699218-.699219c.800782-.800781.800782-2 0-2.800781-.800781-.796875-2-.796875-2.800781 0l-.699219.703125c-.800781.699218-.800781 2 0 2.796875z"/><path d="m9.5 30.5c.800781.800781 2 .800781 2.800781 0l.699219-.699219c.800781-.800781.800781-2 0-2.800781s-2-.800781-2.800781 0l-.699219.699219c-.800781.800781-.800781 2 0 2.800781z"/></g><g fill="#ebae55"><path d="m20.5 37.898438-1.5-1.398438.398438-.398437c.402343-.402344.902343-.402344 1.300781 0l.101562.097656c.398438.402344.398438.902344 0 1.300781z"/><path d="m17.601563 35.101563-1.402344-1.402344.402344-.398438c.398437-.402343.898437-.402343 1.296875 0l.101562.097657c.398438.402343.398438.902343 0 1.300781z"/><path d="m14.800781 32.300781-1.402343-1.402343.402343-.398438c.398438-.398437.898438-.398437 1.300782 0l.097656.101563c.402344.398437.402344.898437 0 1.296875z"/><path d="m12 29.5-1.398437-1.5.398437-.398437c.398438-.402344.898438-.402344 1.300781 0l.097657.097656c.402343.402344.402343.902344 0 1.300781z"/></g></svg>

<svg xmlns="http://www.w3.org/2000/svg" viewBox="0 0 48 48" width="50" height="50" fill="#666"><path d="M 36.800781 28.199219 L 25.5 16.898438 L 28 15 L 26 13 L 12.5 13 L 4 11 L 4 27 L 9.898438 28 L 21.898438 40.199219 C 22.699219 41 23.898438 41 24.699219 40.199219 C 25.5 39.398438 25.5 38.199219 24.699219 37.398438 L 24.601563 37.300781 C 24.398438 37.101563 24.398438 36.800781 24.601563 36.601563 C 24.800781 36.398438 25.101563 36.398438 25.300781 36.601563 L 26.101563 37.398438 C 26.898438 38.199219 28.101563 38.199219 28.898438 37.398438 C 29.699219 36.601563 29.699219 35.398438 28.898438 34.601563 L 28.601563 34.300781 C 28.398438 34.101563 28.398438 33.800781 28.601563 33.601563 C 28.800781 33.398438 29.101563 33.398438 29.300781 33.601563 L 30.300781 34.601563 C 31.101563 35.398438 32.300781 35.398438 33.101563 34.601563 C 33.898438 33.800781 33.898438 32.601563 33.101563 31.800781 C 33.101563 31.800781 32.800781 31.5 32.800781 31.5 C 32.601563 31.300781 32.601563 31 32.800781 30.800781 C 33 30.601563 33.300781 30.601563 33.5 30.800781 L 33.800781 31.101563 C 34.601563 31.898438 35.800781 31.898438 36.601563 31.101563 C 37.601563 30.300781 37.601563 29 36.800781 28.199219 Z" fill="#ffb74d"/><path d="M 27.398438 18.898438 L 22.699219 20.699219 C 19.898438 21.800781 16.800781 21.101563 14.800781 18.898438 C 14.398438 18.5 14.5 17.800781 15.101563 17.5 L 28.398438 11 C 30 10.199219 31.898438 10.398438 33.300781 11.398438 L 33.699219 11.699219 C 34.800781 12.5 36.300781 12.699219 37.601563 12.398438 L 44 11 L 44 27 L 38.101563 28 L 37.300781 28.800781 Z" fill="#c77600"/><path d="M 18 39 C 18.800781 39.800781 20 39.800781 20.800781 39 L 21.5 38.300781 C 22.300781 37.5 22.300781 36.300781 21.5 35.5 C 20.699219 34.699219 19.5 34.699219 18.699219 35.5 L 18 36.199219 C 17.199219 37 17.199219 38.199219 18 39 Z" fill="#c77600"/><path d="M 15.101563 36.199219 C 15.898438 37 17.101563 37 17.898438 36.199219 L 18.601563 35.5 C 19.398438 34.699219 19.398438 33.5 18.601563 32.699219 C 17.800781 31.898438 16.601563 31.898438 15.800781 32.699219 L 15.101563 33.398438 C 14.398438 34.101563 14.398438 35.398438 15.101563 36.199219 Z" fill="#c77600"/><path d="M 12.300781 33.398438 C 13.101563 34.199219 14.300781 34.199219 15.101563 33.398438 L 15.800781 32.699219 C 16.601563 31.898438 16.601563 30.699219 15.800781 29.898438 C 15 29.101563 13.800781 29.101563 13 29.898438 L 12.300781 30.601563 C 11.5 31.300781 11.5 32.601563 12.300781 33.398438 Z" fill="#c77600"/><path d="M 9.5 30.5 C 10.300781 31.300781 11.5 31.300781 12.300781 30.5 L 13 29.800781 C 13.800781 29 13.800781 27.800781 13 27 C 12.199219 26.199219 11 26.199219 10.199219 27 L 9.5 27.699219 C 8.699219 28.5 8.699219 29.699219 9.5 30.5 Z" fill="#c77600"/><path d="M 20.5 37.898438 L 19 36.5 L 19.398438 36.101563 C 19.800781 35.699219 20.300781 35.699219 20.699219 36.101563 L 20.800781 36.199219 C 21.199219 36.601563 21.199219 37.101563 20.800781 37.5 Z" fill="#ebae55"/><path d="M 17.601563 35.101563 L 16.199219 33.699219 L 16.601563 33.300781 C 17 32.898438 17.5 32.898438 17.898438 33.300781 L 18 33.398438 C 18.398438 33.800781 18.398438 34.300781 18 34.699219 Z" fill="#ebae55"/><path d="M 14.800781 32.300781 L 13.398438 30.898438 L 13.800781 30.5 C 14.199219 30.101563 14.699219 30.101563 15.101563 30.5 L 15.199219 30.601563 C 15.601563 31 15.601563 31.5 15.199219 31.898438 Z" fill="#ebae55"/><path d="M 12 29.5 L 10.601563 28 L 11 27.601563 C 11.398438 27.199219 11.898438 27.199219 12.300781 27.601563 L 12.398438 27.699219 C 12.800781 28.101563 12.800781 28.601563 12.398438 29 Z" fill="#ebae55"/></svg>
